src/assets/filled/Iost.svg

<?xml version="1.0" encoding="UTF-8"?>
<svg width="24" height="24" viewBox="0 0 24 24" xmlns="http://www.w3.org/2000/svg">
 <path d="m19.51 6.4198-6.5-3.82c-0.63-0.37-1.4-0.37-2.03 0l-6.5 3.82c-0.61 0.36-0.98999 1.02-0.98999 1.72v7.71c0 0.71 0.37999 1.36 0.98999 1.72l6.5 3.82c0.63 0.37 1.4 0.37 2.03 0l6.5-3.82c0.61-0.36 0.99-1.02 0.99-1.72v-7.71c0-0.7-0.38-1.36-0.99-1.72zm-2.12 9.22-5 3c-0.12 0.07-0.25 0.11-0.39 0.11s-0.27-0.04-0.39-0.11l-5-3c-0.36-0.21-0.47001-0.67-0.26001-1.03s0.67002-0.47 1.03-0.26l4.61 2.77 3.54-2.13-1.86-1.12-0.65 0.65c-0.15 0.15-0.34 0.22-0.53 0.22s-0.38-0.07-0.53-0.22c-0.29-0.29-0.29-0.77 0-1.06l0.38-0.38-1.8-1.08-0.52 0.52c-0.14998 0.15-0.34001 0.22-0.53001 0.22s-0.37997-0.07-0.52997-0.22c-0.29-0.29-0.29-0.77 0-1.06l0.25995-0.26-2.61-1.57c-0.23-0.14-0.35999-0.37999-0.35999-0.63999 0-0.26001 0.13999-0.51 0.35999-0.64l5-3c0.24-0.14 0.54-0.14 0.77 0l5 3c0.36 0.21 0.47 0.66999 0.26 1.03-0.21 0.35-0.67 0.47-1.03 0.26l-4.61-2.77-3.54 2.13 1.86 1.12 0.65-0.65004c0.29-0.29 0.77-0.29 1.06 0s0.29 0.77004 0 1.06l-0.38 0.38 1.8 1.08 0.52-0.52c0.29-0.29 0.77-0.29 1.06 0s0.29 0.77 0 1.06l-0.26 0.26 2.61 1.57c0.23 0.14 0.36 0.38 0.36 0.64s-0.13 0.51-0.35 0.64z"/>
</svg>

<svg width="24" height="24" viewBox="0 0 24 24"  xmlns="http://www.w3.org/2000/svg">
<path d="M19.51 6.41976L13.01 2.59977C12.38 2.22977 11.61 2.22977 10.98 2.59977L4.47998 6.41976C3.86998 6.77976 3.48999 7.43976 3.48999 8.13976V15.8498C3.48999 16.5598 3.86998 17.2098 4.47998 17.5698L10.98 21.3898C11.61 21.7598 12.38 21.7598 13.01 21.3898L19.51 17.5698C20.12 17.2098 20.5 16.5498 20.5 15.8498V8.13976C20.5 7.43976 20.12 6.77976 19.51 6.41976ZM17.39 15.6398L12.39 18.6398C12.27 18.7098 12.14 18.7498 12 18.7498C11.86 18.7498 11.73 18.7098 11.61 18.6398L6.60999 15.6398C6.24999 15.4298 6.13998 14.9698 6.34998 14.6098C6.55998 14.2498 7.02 14.1398 7.38 14.3498L11.99 17.1198L15.53 14.9898L13.67 13.8698L13.02 14.5198C12.87 14.6698 12.68 14.7398 12.49 14.7398C12.3 14.7398 12.11 14.6698 11.96 14.5198C11.67 14.2298 11.67 13.7498 11.96 13.4598L12.34 13.0798L10.54 11.9998L10.02 12.5198C9.87002 12.6698 9.67999 12.7398 9.48999 12.7398C9.29999 12.7398 9.11002 12.6698 8.96002 12.5198C8.67002 12.2298 8.67002 11.7498 8.96002 11.4598L9.21997 11.1998L6.60999 9.62976C6.37999 9.48976 6.25 9.24977 6.25 8.98977C6.25 8.72976 6.38999 8.47977 6.60999 8.34977L11.61 5.34977C11.85 5.20977 12.15 5.20977 12.38 5.34977L17.38 8.34977C17.74 8.55977 17.85 9.01976 17.64 9.37976C17.43 9.72976 16.97 9.84976 16.61 9.63976L12 6.86975L8.46002 8.99976L10.32 10.1198L10.97 9.46976C11.26 9.17976 11.74 9.17976 12.03 9.46976C12.32 9.75976 12.32 10.2398 12.03 10.5298L11.65 10.9098L13.45 11.9898L13.97 11.4698C14.26 11.1798 14.74 11.1798 15.03 11.4698C15.32 11.7598 15.32 12.2398 15.03 12.5298L14.77 12.7898L17.38 14.3598C17.61 14.4998 17.74 14.7398 17.74 14.9998C17.74 15.2598 17.61 15.5098 17.39 15.6398Z" />
</svg>
